static/img/kroki/d508fa5f0317d4b03ba1cce6ed13cf70.svg

<?xml version="1.0" encoding="us-ascii" standalone="no"?><svg xmlns="http://www.w3.org/2000/svg" xmlns:xlink="http://www.w3.org/1999/xlink" contentStyleType="text/css" height="901px" preserveAspectRatio="none" style="width:448px;height:901px;" version="1.1" viewBox="0 0 448 901" width="448px" zoomAndPan="magnify"><defs/><g><!--class aws_resource--><g id="elem_aws_resource"><rect codeLine="22" fill="#3D176E" height="74.0859" id="aws_resource" rx="2.5" ry="2.5" style="stroke:#000D19;stroke-width:0.5;" width="155" x="146.5" y="438.76"/><ellipse cx="161.5" cy="458.6545" fill="#ADD1B2" rx="11" ry="11" style="stroke:#181818;stroke-width:1.0;"/><path d="M164.4688,464.2952 Q163.8906,464.592 163.25,464.7327 Q162.6094,464.8889 161.9063,464.8889 Q159.4063,464.8889 158.0781,463.2483 Q156.7656,461.592 156.7656,458.467 Q156.7656,455.342 158.0781,453.6858 Q159.4063,452.0295 161.9063,452.0295 Q162.6094,452.0295 163.25,452.1858 Q163.9063,452.342 164.4688,452.6389 L164.4688,455.3577 Q163.8438,454.7795 163.25,454.5139 Q162.6563,454.2327 162.0313,454.2327 Q160.6875,454.2327 160,455.3108 Q159.3125,456.3733 159.3125,458.467 Q159.3125,460.5608 160,461.6389 Q160.6875,462.7014 162.0313,462.7014 Q162.6563,462.7014 163.25,462.4358 Q163.8438,462.1545 164.4688,461.5764 L164.4688,464.2952 Z " fill="#000000"/><text fill="#D9B8FF" font-family="Helvetica" font-size="17" lengthAdjust="spacing" textLength="113" x="180.5" y="464.5398">aws_resource</text><line style="stroke:#000D19;stroke-width:0.5;" x1="147.5" x2="300.5" y1="478.5491" y2="478.5491"/><text fill="#D9B8FF" font-family="sans-serif" font-size="14" font-weight="bold" lengthAdjust="spacing" textLength="26" x="157.5" y="500.5442">arn</text><text fill="#D9B8FF" font-family="sans-serif" font-size="14" lengthAdjust="spacing" textLength="48" x="183.5" y="500.5442">: string</text></g><!--class aws_sagemaker_experiment--><g id="elem_aws_sagemaker_experiment"><rect codeLine="25" fill="#3D176E" height="100.3828" id="aws_sagemaker_experiment" rx="2.5" ry="2.5" style="stroke:#000D19;stroke-width:0.5;" width="434" x="7" y="633.84"/><ellipse cx="94.75" cy="653.7345" fill="#ADD1B2" rx="11" ry="11" style="stroke:#181818;stroke-width:1.0;"/><path d="M97.7188,659.3752 Q97.1406,659.672 96.5,659.8127 Q95.8594,659.9689 95.1563,659.9689 Q92.6563,659.9689 91.3281,658.3283 Q90.0156,656.672 90.0156,653.547 Q90.0156,650.422 91.3281,648.7658 Q92.6563,647.1095 95.1563,647.1095 Q95.8594,647.1095 96.5,647.2658 Q97.1563,647.422 97.7188,647.7189 L97.7188,650.4377 Q97.0938,649.8595 96.5,649.5939 Q95.9063,649.3127 95.2813,649.3127 Q93.9375,649.3127 93.25,650.3908 Q92.5625,651.4533 92.5625,653.547 Q92.5625,655.6408 93.25,656.7189 Q93.9375,657.7814 95.2813,657.7814 Q95.9063,657.7814 96.5,657.5158 Q97.0938,657.2345 97.7188,656.6564 L97.7188,659.3752 Z " fill="#000000"/><text fill="#D9B8FF" font-family="Helvetica" font-size="17" lengthAdjust="spacing" textLength="240" x="120.25" y="659.6198">aws_sagemaker_experiment</text><line style="stroke:#000D19;stroke-width:0.5;" x1="8" x2="440" y1="673.6291" y2="673.6291"/><text fill="#D9B8FF" font-family="sans-serif" font-size="14" font-weight="bold" lengthAdjust="spacing" textLength="202" x="18" y="695.6242">experiment_display_name</text><text fill="#D9B8FF" font-family="sans-serif" font-size="14" lengthAdjust="spacing" textLength="48" x="220" y="695.6242">: string</text><text fill="#D9B8FF" font-family="sans-serif" font-size="14" font-weight="bold" lengthAdjust="spacing" textLength="152" x="18" y="721.9211">experiment_source</text><text fill="#D9B8FF" font-family="sans-serif" font-size="14" lengthAdjust="spacing" textLength="260" x="170" y="721.9211">: aws_sagemaker_experiment_source</text></g><!--class aws_sagemaker_experiment_source--><g id="elem_aws_sagemaker_experiment_source"><rect codeLine="29" fill="#3D176E" height="100.3828" id="aws_sagemaker_experiment_source" rx="2.5" ry="2.5" style="stroke:#000D19;stroke-width:0.5;" width="345" x="51.5" y="794.23"/><ellipse cx="66.5" cy="814.1245" fill="#ADD1B2" rx="11" ry="11" style="stroke:#181818;stroke-width:1.0;"/><path d="M69.4688,819.7652 Q68.8906,820.062 68.25,820.2027 Q67.6094,820.3589 66.9063,820.3589 Q64.4063,820.3589 63.0781,818.7183 Q61.7656,817.062 61.7656,813.937 Q61.7656,810.812 63.0781,809.1558 Q64.4063,807.4995 66.9063,807.4995 Q67.6094,807.4995 68.25,807.6558 Q68.9063,807.812 69.4688,808.1089 L69.4688,810.8277 Q68.8438,810.2495 68.25,809.9839 Q67.6563,809.7027 67.0313,809.7027 Q65.6875,809.7027 65,810.7808 Q64.3125,811.8433 64.3125,813.937 Q64.3125,816.0308 65,817.1089 Q65.6875,818.1714 67.0313,818.1714 Q67.6563,818.1714 68.25,817.9058 Q68.8438,817.6245 69.4688,817.0464 L69.4688,819.7652 Z " fill="#000000"/><text fill="#D9B8FF" font-family="Helvetica" font-size="17" lengthAdjust="spacing" textLength="303" x="85.5" y="820.0098">aws_sagemaker_experiment_source</text><line style="stroke:#000D19;stroke-width:0.5;" x1="52.5" x2="395.5" y1="834.0191" y2="834.0191"/><text fill="#D9B8FF" font-family="sans-serif" font-size="14" font-weight="bold" lengthAdjust="spacing" textLength="88" x="62.5" y="856.0142">source_arn</text><text fill="#D9B8FF" font-family="sans-serif" font-size="14" lengthAdjust="spacing" textLength="48" x="150.5" y="856.0142">: string</text><text fill="#D9B8FF" font-family="sans-serif" font-size="14" font-weight="bold" lengthAdjust="spacing" textLength="97" x="62.5" y="882.3111">source_type</text><text fill="#D9B8FF" font-family="sans-serif" font-size="14" lengthAdjust="spacing" textLength="48" x="159.5" y="882.3111">: string</text></g><!--class resource--><g id="elem_resource"><rect codeLine="33" fill="#3D176E" height="310.7578" id="resource" rx="2.5" ry="2.5" style="stroke:#000D19;stroke-width:0.5;" width="227" x="110.5" y="7"/><ellipse cx="179.25" cy="26.8945" fill="#ADD1B2" rx="11" ry="11" style="stroke:#181818;stroke-width:1.0;"/><path d="M182.2188,32.5352 Q181.6406,32.832 181,32.9727 Q180.3594,33.1289 179.6563,33.1289 Q177.1563,33.1289 175.8281,31.4883 Q174.5156,29.832 174.5156,26.707 Q174.5156,23.582 175.8281,21.9258 Q177.1563,20.2695 179.6563,20.2695 Q180.3594,20.2695 181,20.4258 Q181.6563,20.582 182.2188,20.8789 L182.2188,23.5977 Q181.5938,23.0195 181,22.7539 Q180.4063,22.4727 179.7813,22.4727 Q178.4375,22.4727 177.75,23.5508 Q177.0625,24.6133 177.0625,26.707 Q177.0625,28.8008 177.75,29.8789 Q178.4375,30.9414 179.7813,30.9414 Q180.4063,30.9414 181,30.6758 Q181.5938,30.3945 182.2188,29.8164 L182.2188,32.5352 Z " fill="#000000"/><text fill="#D9B8FF" font-family="Helvetica" font-size="17" lengthAdjust="spacing" textLength="71" x="204.75" y="32.7798">resource</text><line style="stroke:#000D19;stroke-width:0.5;" x1="111.5" x2="336.5" y1="46.7891" y2="46.7891"/><text fill="#D9B8FF" font-family="sans-serif" font-size="14" font-weight="bold" lengthAdjust="spacing" textLength="29" x="121.5" y="68.7842">age</text><text fill="#D9B8FF" font-family="sans-serif" font-size="14" lengthAdjust="spacing" textLength="66" x="150.5" y="68.7842">: duration</text><text fill="#D9B8FF" font-family="sans-serif" font-size="14" font-weight="bold" lengthAdjust="spacing" textLength="43" x="121.5" y="95.0811">atime</text><text fill="#D9B8FF" font-family="sans-serif" font-size="14" lengthAdjust="spacing" textLength="70" x="164.5" y="95.0811">: datetime</text><text fill="#D9B8FF" font-family="sans-serif" font-size="14" font-weight="bold" lengthAdjust="spacing" textLength="43" x="121.5" y="121.3779">ctime</text><text fill="#D9B8FF" font-family="sans-serif" font-size="14" lengthAdjust="spacing" textLength="70" x="164.5" y="121.3779">: datetime</text><text fill="#D9B8FF" font-family="sans-serif" font-size="14" font-weight="bold" lengthAdjust="spacing" textLength="14" x="121.5" y="147.6748">id</text><text fill="#D9B8FF" font-family="sans-serif" font-size="14" lengthAdjust="spacing" textLength="48" x="135.5" y="147.6748">: string</text><text fill="#D9B8FF" font-family="sans-serif" font-size="14" font-weight="bold" lengthAdjust="spacing" textLength="33" x="121.5" y="173.9717">kind</text><text fill="#D9B8FF" font-family="sans-serif" font-size="14" lengthAdjust="spacing" textLength="48" x="154.5" y="173.9717">: string</text><text fill="#D9B8FF" font-family="sans-serif" font-size="14" font-weight="bold" lengthAdjust="spacing" textLength="90" x="121.5" y="200.2686">last_access</text><text fill="#D9B8FF" font-family="sans-serif" font-size="14" lengthAdjust="spacing" textLength="66" x="211.5" y="200.2686">: duration</text><text fill="#D9B8FF" font-family="sans-serif" font-size="14" font-weight="bold" lengthAdjust="spacing" textLength="90" x="121.5" y="226.5654">last_update</text><text fill="#D9B8FF" font-family="sans-serif" font-size="14" lengthAdjust="spacing" textLength="66" x="211.5" y="226.5654">: duration</text><text fill="#D9B8FF" font-family="sans-serif" font-size="14" font-weight="bold" lengthAdjust="spacing" textLength="48" x="121.5" y="252.8623">mtime</text><text fill="#D9B8FF" font-family="sans-serif" font-size="14" lengthAdjust="spacing" textLength="70" x="169.5" y="252.8623">: datetime</text><text fill="#D9B8FF" font-family="sans-serif" font-size="14" font-weight="bold" lengthAdjust="spacing" textLength="43" x="121.5" y="279.1592">name</text><text fill="#D9B8FF" font-family="sans-serif" font-size="14" lengthAdjust="spacing" textLength="48" x="164.5" y="279.1592">: string</text><text fill="#D9B8FF" font-family="sans-serif" font-size="14" font-weight="bold" lengthAdjust="spacing" textLength="34" x="121.5" y="305.4561">tags</text><text fill="#D9B8FF" font-family="sans-serif" font-size="14" lengthAdjust="spacing" textLength="171" x="155.5" y="305.4561">: dictionary[string, string]</text></g><!--reverse link resource to aws_resource--><g id="link_resource_aws_resource"><path codeLine="45" d="M224,338.98 C224,376.78 224,413 224,438.51 " fill="none" id="resource-backto-aws_resource" style="stroke:#FFAF37;stroke-width:2.0;"/><polygon fill="none" points="217,339.18,224,319.18,231,339.18,217,339.18" style="stroke:#FFAF37;stroke-width:2.0;"/></g><!--reverse link aws_resource to aws_sagemaker_experiment--><g id="link_aws_resource_aws_sagemaker_experiment"><path codeLine="46" d="M224,533.98 C224,565.21 224,603.51 224,633.46 " fill="none" id="aws_resource-backto-aws_sagemaker_experiment" style="stroke:#FFAF37;stroke-width:2.0;"/><polygon fill="none" points="217,534.2,224,514.2,231,534.2,217,534.2" style="stroke:#FFAF37;stroke-width:2.0;"/></g><!--link aws_sagemaker_experiment to aws_sagemaker_experiment_source--><g id="link_aws_sagemaker_experiment_aws_sagemaker_experiment_source"><path codeLine="47" d="M224,734.71 C224,751.67 224,770.73 224,788.1 " fill="none" id="aws_sagemaker_experiment-to-aws_sagemaker_experiment_source" style="stroke:#FFAF37;stroke-width:2.0;"/><polygon fill="#FFAF37" points="224,792.92,228,783.92,224,787.92,220,783.92,224,792.92" style="stroke:#FFAF37;stroke-width:2.0;"/></g><!--SRC=[XPFBJiCm44Nt-GfBx2eYjI0eHGW9AY7O80Ji48gczYIrcjZHsA6KnxzZDwKuZz9TClTaxfsnCvS26HQbNR42YncIYSn2gX882dP5f9TJdMjY1saAwV6uBTvePVS2zr0WkyNy3Qtaq2QUvv8l51h3ZWBf6lWY8rqfKRUt1Ceu2PKDg6aEnbnPIt9MMGp2YCdiB4tRPBlfmR4OZK-nWsaII1jaE1oAqQIDxBNwT-ujyIG_a8t2fTrhYvsO7OirzMzAJmGXEuF-wZipFe0GKcNi9AWzrfb88JNgJtCGUkdf578JsXYBXDgkIfnsfiB9cKZ7lV3TBfZxpJ5OceJGw8euiizeC01IWy6vQq0kHFGTO0OoB621bE1xYIGBTu7Md_oz9aAQCeTLejmkWZODfZRpwgwk6sIlUnBahX-JPlnjsM-YPwpcvDaQ4HM1bLhvYfNr608i-cTNupqrAHgUxXIQ1UTb4-3S_PajXxLIbRvNIobwV3fRjP3L7INtdm6jNchjSCEykb6tGrvynN7SEF6eSVn_Uj-oevrt88ulzntH3m00]--></g></svg>

<svg xmlns="http://www.w3.org/2000/svg" width="448" height="901" preserveAspectRatio="none" style="width:448px;height:901px"><rect width="155" height="74.086" x="146.5" y="438.76" fill="#3D176E" rx="2.5" ry="2.5" style="stroke:#000d19;stroke-width:.5"/><circle cx="161.5" cy="458.654" r="11" fill="#ADD1B2" style="stroke:#181818;stroke-width:1"/><path d="M164.469 464.295q-.578.297-1.219.438-.64.156-1.344.156-2.5 0-3.828-1.64-1.312-1.657-1.312-4.782t1.312-4.781q1.328-1.656 3.828-1.656.703 0 1.344.156.656.156 1.219.453v2.719q-.625-.579-1.219-.844-.594-.281-1.219-.281-1.344 0-2.031 1.078-.688 1.062-.688 3.156 0 2.094.688 3.172.688 1.062 2.031 1.062.625 0 1.219-.265.594-.281 1.219-.86v2.72Z"/><text x="180.5" y="464.54" fill="#D9B8FF" font-family="Helvetica" font-size="17" textLength="113">aws_resource</text><path d="M147.5 478.549h153" style="stroke:#000d19;stroke-width:.5"/><text x="157.5" y="500.544" fill="#D9B8FF" font-family="sans-serif" font-size="14" font-weight="bold" textLength="26">arn</text><text x="183.5" y="500.544" fill="#D9B8FF" font-family="sans-serif" font-size="14" textLength="48">: string</text><rect width="434" height="100.383" x="7" y="633.84" fill="#3D176E" rx="2.5" ry="2.5" style="stroke:#000d19;stroke-width:.5"/><circle cx="94.75" cy="653.735" r="11" fill="#ADD1B2" style="stroke:#181818;stroke-width:1"/><path d="M97.719 659.375q-.578.297-1.219.438-.64.156-1.344.156-2.5 0-3.828-1.64-1.312-1.657-1.312-4.782t1.312-4.781q1.328-1.656 3.828-1.656.703 0 1.344.156.656.156 1.219.453v2.719q-.625-.578-1.219-.844-.594-.281-1.219-.281-1.344 0-2.031 1.078-.688 1.062-.688 3.156 0 2.094.688 3.172.688 1.062 2.031 1.062.625 0 1.219-.265.594-.281 1.219-.86v2.72Z"/><text x="120.25" y="659.62" fill="#D9B8FF" font-family="Helvetica" font-size="17" textLength="240">aws_sagemaker_experiment</text><path d="M8 673.629h432" style="stroke:#000d19;stroke-width:.5"/><text x="18" y="695.624" fill="#D9B8FF" font-family="sans-serif" font-size="14" font-weight="bold" textLength="202">experiment_display_name</text><text x="220" y="695.624" fill="#D9B8FF" font-family="sans-serif" font-size="14" textLength="48">: string</text><text x="18" y="721.921" fill="#D9B8FF" font-family="sans-serif" font-size="14" font-weight="bold" textLength="152">experiment_source</text><text x="170" y="721.921" fill="#D9B8FF" font-family="sans-serif" font-size="14" textLength="260">: aws_sagemaker_experiment_source</text><rect width="345" height="100.383" x="51.5" y="794.23" fill="#3D176E" rx="2.5" ry="2.5" style="stroke:#000d19;stroke-width:.5"/><circle cx="66.5" cy="814.125" r="11" fill="#ADD1B2" style="stroke:#181818;stroke-width:1"/><path d="M69.469 819.765q-.578.297-1.219.438-.64.156-1.344.156-2.5 0-3.828-1.64-1.312-1.657-1.312-4.782t1.312-4.781q1.328-1.656 3.828-1.656.703 0 1.344.156.656.156 1.219.453v2.719q-.625-.578-1.219-.844-.594-.281-1.219-.281-1.344 0-2.031 1.078-.688 1.062-.688 3.156 0 2.094.688 3.172.688 1.062 2.031 1.062.625 0 1.219-.265.594-.281 1.219-.86v2.72Z"/><text x="85.5" y="820.01" fill="#D9B8FF" font-family="Helvetica" font-size="17" textLength="303">aws_sagemaker_experiment_source</text><path d="M52.5 834.019h343" style="stroke:#000d19;stroke-width:.5"/><text x="62.5" y="856.014" fill="#D9B8FF" font-family="sans-serif" font-size="14" font-weight="bold" textLength="88">source_arn</text><text x="150.5" y="856.014" fill="#D9B8FF" font-family="sans-serif" font-size="14" textLength="48">: string</text><text x="62.5" y="882.311" fill="#D9B8FF" font-family="sans-serif" font-size="14" font-weight="bold" textLength="97">source_type</text><text x="159.5" y="882.311" fill="#D9B8FF" font-family="sans-serif" font-size="14" textLength="48">: string</text><rect width="227" height="310.758" x="110.5" y="7" fill="#3D176E" rx="2.5" ry="2.5" style="stroke:#000d19;stroke-width:.5"/><circle cx="179.25" cy="26.895" r="11" fill="#ADD1B2" style="stroke:#181818;stroke-width:1"/><path d="M182.219 32.535q-.578.297-1.219.438-.64.156-1.344.156-2.5 0-3.828-1.64-1.312-1.657-1.312-4.782t1.312-4.781q1.328-1.656 3.828-1.656.703 0 1.344.156.656.156 1.219.453v2.719q-.625-.578-1.219-.844-.594-.281-1.219-.281-1.344 0-2.031 1.078-.688 1.062-.688 3.156 0 2.094.688 3.172.688 1.062 2.031 1.062.625 0 1.219-.265.594-.281 1.219-.86v2.72Z"/><text x="204.75" y="32.78" fill="#D9B8FF" font-family="Helvetica" font-size="17" textLength="71">resource</text><path d="M111.5 46.789h225" style="stroke:#000d19;stroke-width:.5"/><text x="121.5" y="68.784" fill="#D9B8FF" font-family="sans-serif" font-size="14" font-weight="bold" textLength="29">age</text><text x="150.5" y="68.784" fill="#D9B8FF" font-family="sans-serif" font-size="14" textLength="66">: duration</text><text x="121.5" y="95.081" fill="#D9B8FF" font-family="sans-serif" font-size="14" font-weight="bold" textLength="43">atime</text><text x="164.5" y="95.081" fill="#D9B8FF" font-family="sans-serif" font-size="14" textLength="70">: datetime</text><text x="121.5" y="121.378" fill="#D9B8FF" font-family="sans-serif" font-size="14" font-weight="bold" textLength="43">ctime</text><text x="164.5" y="121.378" fill="#D9B8FF" font-family="sans-serif" font-size="14" textLength="70">: datetime</text><text x="121.5" y="147.675" fill="#D9B8FF" font-family="sans-serif" font-size="14" font-weight="bold" textLength="14">id</text><text x="135.5" y="147.675" fill="#D9B8FF" font-family="sans-serif" font-size="14" textLength="48">: string</text><text x="121.5" y="173.972" fill="#D9B8FF" font-family="sans-serif" font-size="14" font-weight="bold" textLength="33">kind</text><text x="154.5" y="173.972" fill="#D9B8FF" font-family="sans-serif" font-size="14" textLength="48">: string</text><text x="121.5" y="200.269" fill="#D9B8FF" font-family="sans-serif" font-size="14" font-weight="bold" textLength="90">last_access</text><text x="211.5" y="200.269" fill="#D9B8FF" font-family="sans-serif" font-size="14" textLength="66">: duration</text><text x="121.5" y="226.565" fill="#D9B8FF" font-family="sans-serif" font-size="14" font-weight="bold" textLength="90">last_update</text><text x="211.5" y="226.565" fill="#D9B8FF" font-family="sans-serif" font-size="14" textLength="66">: duration</text><text x="121.5" y="252.862" fill="#D9B8FF" font-family="sans-serif" font-size="14" font-weight="bold" textLength="48">mtime</text><text x="169.5" y="252.862" fill="#D9B8FF" font-family="sans-serif" font-size="14" textLength="70">: datetime</text><text x="121.5" y="279.159" fill="#D9B8FF" font-family="sans-serif" font-size="14" font-weight="bold" textLength="43">name</text><text x="164.5" y="279.159" fill="#D9B8FF" font-family="sans-serif" font-size="14" textLength="48">: string</text><text x="121.5" y="305.456" fill="#D9B8FF" font-family="sans-serif" font-size="14" font-weight="bold" textLength="34">tags</text><text x="155.5" y="305.456" fill="#D9B8FF" font-family="sans-serif" font-size="14" textLength="171">: dictionary[string, string]</text><path fill="none" d="M224 338.98v99.53m-7-99.33 7-20 7 20h-14zm7 194.8v99.48m-7-99.26 7-20 7 20h-14zm7 200.51v53.39" style="stroke:#ffaf37;stroke-width:2"/><path fill="#FFAF37" d="m224 792.92 4-9-4 4-4-4 4 9z" style="stroke:#ffaf37;stroke-width:2"/></svg>
